src/components/Icon/assets/desktop.svg

<svg xmlns="http://www.w3.org/2000/svg" width="24" height="24" viewBox="0 0 24 24">
    <path fill="#65676A" fill-rule="evenodd" d="M4 14h16V6H4v8zM20.5 4h-17C2.673 4 2 4.673 2 5.5v9c0 .827.673 1.5 1.5 1.5H11v2H8v2h8v-2h-3v-2h7.5c.827 0 1.5-.673 1.5-1.5v-9c0-.827-.673-1.5-1.5-1.5z"/>
</svg>

<svg width="24" height="24" viewBox="0 0 24 24" fill="none" xmlns="http://www.w3.org/2000/svg">
<path fill-rule="evenodd" clip-rule="evenodd" d="M4 14H20V6H4V14ZM20.5 4H3.5C2.673 4 2 4.673 2 5.5V14.5C2 15.327 2.673 16 3.5 16H11V18H8V20H16V18H13V16H20.5C21.327 16 22 15.327 22 14.5V5.5C22 4.673 21.327 4 20.5 4V4Z" fill="#65676A"/>
</svg>
